Origami/64x64/apps/gnome-twofactorauth.svg

<svg width="64" height="64" version="1" xmlns="http://www.w3.org/2000/svg">
 <rect transform="matrix(0,-1,-1,0,0,0)" x="-60" y="-52" width="40" height="40" rx="20" ry="20" style="opacity:.2"/>
 <path d="m32 6c-12.600372 0-14.000372 11.294117-14 24h6c-0.14818-12.705883 2.730378-18 8-18 5.26962 0 8.147438 5.294117 8 18h6c-3.72e-4 -12.705883-1.400372-24-14-24z" style="opacity:.2"/>
 <path d="m32 5c-12.600372 0-14.000372 11.294117-14 24h6c-0.14818-12.705883 2.730378-18 8-18 5.26962 0 8.147438 5.294117 8 18h6c-3.72e-4 -12.705883-1.400372-24-14-24z" style="fill:#cccccc"/>
 <path d="m32 5c-12.600372 0-14.000372 11.294117-14 24h0.007812c0.078421-12.290435 1.725048-23 13.992188-23 12.266416 0 13.913081 10.709565 13.992188 23h0.007812c-3.72e-4 -12.705883-1.400372-24-14-24z" style="fill:#ffffff;opacity:.2"/>
 <rect transform="matrix(0,-1,-1,0,0,0)" x="-59" y="-52" width="40" height="40" rx="20" ry="20" style="fill:#a0a0a0"/>
 <rect transform="matrix(0,-1,-1,0,0,0)" x="-53" y="-46" width="28" height="28" rx="14" ry="14" style="fill:#4f4f4f"/>
 <path d="m39.778176 32.221824-3.18198 1.06066-2.903006 0.96951a6 6 0 0 0 -5.93583 1.505364 6 6 0 0 0 0 8.485282 6 6 0 0 0 8.485282 0 6 6 0 0 0 1.508126 -5.944116l0.966748-2.89472z" style="opacity:.2"/>
 <path d="m39.778176 31.221824-3.18198 1.06066-2.903006 0.96951a6 6 0 0 0 -5.93583 1.505364 6 6 0 0 0 0 8.485282 6 6 0 0 0 8.485282 0 6 6 0 0 0 1.508126 -5.944116l0.966748-2.89472z" style="fill:#ff5969"/>
</svg>

<svg xmlns="http://www.w3.org/2000/svg" width="64" height="64" version="1">
 <rect style="opacity:0.2" width="40" height="40" x="-60" y="-52" rx="20" ry="20" transform="matrix(0,-1,-1,0,0,0)"/>
 <path style="opacity:0.2" d="M 32,6 C 19.399628,6 17.999628,17.294117 18,30 h 6 c -0.14818,-12.705883 2.730378,-18 8,-18 5.26962,0 8.147438,5.294117 8,18 h 6 C 45.999628,17.294117 44.599628,6 32,6 Z"/>
 <path style="fill:#cccccc" d="M 32,5 C 19.399628,5 17.999628,16.294117 18,29 h 6 c -0.14818,-12.705883 2.730378,-18 8,-18 5.26962,0 8.147438,5.294117 8,18 h 6 C 45.999628,16.294117 44.599628,5 32,5 Z"/>
 <path style="opacity:0.2;fill:#ffffff" d="M 32 5 C 19.399628 5 17.999628 16.294117 18 29 L 18.007812 29 C 18.086233 16.709565 19.73286 6 32 6 C 44.266416 6 45.913081 16.709565 45.992188 29 L 46 29 C 45.999628 16.294117 44.599628 5 32 5 z"/>
 <rect style="fill:#a0a0a0" width="40" height="40" x="-59" y="-52" rx="20" ry="20" transform="matrix(0,-1,-1,0,0,0)"/>
 <rect style="fill:#4f4f4f" width="28" height="28" x="-53" y="-46" rx="14" ry="14" transform="matrix(0,-1,-1,0,0,0)"/>
 <path style="opacity:0.2" d="m 39.778176,32.221824 -3.18198,1.06066 -2.903006,0.96951 a 6,6 0 0 0 -5.93583,1.505364 6,6 0 0 0 0,8.485282 6,6 0 0 0 8.485282,0 6,6 0 0 0 1.508126,-5.944116 l 0.966748,-2.89472 z"/>
 <path style="fill:#ff5969" d="m 39.778176,31.221824 -3.18198,1.06066 -2.903006,0.96951 a 6,6 0 0 0 -5.93583,1.505364 6,6 0 0 0 0,8.485282 6,6 0 0 0 8.485282,0 6,6 0 0 0 1.508126,-5.944116 l 0.966748,-2.89472 z"/>
</svg>
